X:1
T:Title
%%score { ( 1 3 ) | ( 2 4 ) }
L:1/8
M:3/2
K:A
V:1 treble nm="Grand Piano"
V:3 treble 
V:2 bass 
V:4 bass 
V:1
 z4 z2[Q:1/4=110] [CE]2 [DF]2 [CE]2 | [Ec]6 [EA]2 [FB]2 [FA]2 | [DF]6 [FA]2 [EG]2 [DF]2 | %3
 [CE]6 [Ec]2 [^DB]2 [DF]2 |[M:3/4] B6 | E2 A2 B2 |[M:6/4] c6 d2 c2 B2 | A6 E2 F2 [DG]2 | %8
 C3 D E2 [FB]2 [EA]2 [DG]2 |[M:3/4] [CA]6 |] %10
V:2
 z4 z2 [A,,A,]2 [A,,A,]2 [A,,A,]2 | [A,,A,]6 [C,A,]2 [D,A,]2 [D,A,]2 | %2
 [D,A,]6 [D,A,]2 [D,A,]2 [D,A,]2 | [A,,A,]6 [A,,A,]2 [B,,F,]2 [B,,A,]2 |[M:3/4] E4 z2 | C2 C2 D2 | %6
[M:6/4] E6 F2 E2 D2 | C6[K:bass] [C,A,]2 [D,A,D]2 [B,,E,]2 | A,,3 B,, C,2 [D,A,]2 [E,C]2 [E,B,]2 | %9
[M:3/4] [A,,A,]6 |] %10
V:3
 x12 | x12 | x12 | x12 |[M:3/4] z2 z2 D2 | x6 |[M:6/4] x12 | x12 | [A,A]6 z6 |[M:3/4] x6 |] %10
V:4
 x12 | x12 | x12 | x12 |[M:3/4] [E,G,]6 | x6 |[M:6/4] x12 | x6[K:bass] x6 | x12 |[M:3/4] x6 |] %10

